src/components/stable/gux-icon/icons/cc-inbound-queue.svg

<svg viewBox="0 0 25 28" fill="none" xmlns="http://www.w3.org/2000/svg">
  <path fill-rule="evenodd" clip-rule="evenodd" d="M14.3585 18.9579C15.4651 18.9579 16.5165 19.5743 17.0151 20.5827V20.5837C17.6792 21.9282 18.3433 23.2168 19.0627 24.5613C19.6716 25.7372 19.0075 27.2503 17.7344 27.5864C15.4651 28.2028 12.9741 28.1469 10.76 27.3061C9.32133 26.7466 8.1586 25.6814 7.49446 24.281L5.3907 20.1348L2.73415 14.8686L0.686569 10.7783C-0.0327444 9.37794 -0.198277 7.75318 0.244146 6.24013C0.908281 3.99898 2.23655 1.98123 4.00825 0.525043C5.17099 -0.42747 6.72097 -0.0354977 7.38511 1.30899L9.10062 4.72707C9.81994 6.18326 9.70958 7.41605 9.04545 8.31271L6.60962 10.7214L10.761 19.0138L14.3585 18.9579ZM15.625 4C15.2798 4 15 4.26863 15 4.6C15 4.93137 15.2798 5.2 15.625 5.2H16.25V6.4759C16.25 7.18817 16.5796 7.86364 17.1495 8.31963L19.25 10L17.1495 11.6804C16.5796 12.1364 16.25 12.8118 16.25 13.5241V14.8H15.625C15.2798 14.8 15 15.0686 15 15.4C15 15.7314 15.2798 16 15.625 16H24.375C24.7202 16 25 15.7314 25 15.4C25 15.0686 24.7202 14.8 24.375 14.8H23.75V13.5241C23.75 12.8118 23.4204 12.1364 22.8505 11.6804L20.75 10L22.8505 8.31963C23.4204 7.86365 23.75 7.18817 23.75 6.4759V5.2H24.375C24.7202 5.2 25 4.93137 25 4.6C25 4.26863 24.7202 4 24.375 4H15.625ZM22.5 6.42159C22.5 6.71582 22.3704 6.99511 22.1458 7.18512L20.6458 8.4538C20.273 8.76911 19.727 8.76911 19.3542 8.4538L17.8542 7.18512C17.6296 6.99511 17.5 6.71582 17.5 6.42159V5H22.5V6.42159Z"/>
</svg>

<svg viewBox="0 0 25 28" fill="none" xmlns="http://www.w3.org/2000/svg"><path clip-rule="evenodd" d="M14.358 18.958c1.107 0 2.159.616 2.657 1.625a135.692 135.692 0 002.048 3.978c.609 1.176-.055 2.69-1.329 3.025-2.269.617-4.76.56-6.974-.28a5.992 5.992 0 01-3.266-3.025l-2.103-4.146-2.657-5.266-2.047-4.09A6.156 6.156 0 01.244 6.24C.908 4 2.237 1.981 4.008.525c1.163-.952 2.713-.56 3.377.784l1.716 3.418c.719 1.456.609 2.689-.056 3.586L6.61 10.72l4.151 8.293 3.598-.056zM15.625 4a.613.613 0 00-.625.6c0 .331.28.6.625.6h.625v1.276c0 .712.33 1.388.9 1.844l2.1 1.68-2.1 1.68c-.57.456-.9 1.132-.9 1.844V14.8h-.625a.613.613 0 00-.625.6c0 .331.28.6.625.6h8.75a.613.613 0 00.625-.6c0-.331-.28-.6-.625-.6h-.625v-1.276c0-.712-.33-1.388-.9-1.844L20.75 10l2.1-1.68c.57-.456.9-1.132.9-1.844V5.2h.625A.613.613 0 0025 4.6c0-.331-.28-.6-.625-.6h-8.75zM22.5 6.422a1 1 0 01-.354.763l-1.5 1.269a1 1 0 01-1.292 0l-1.5-1.269a1 1 0 01-.354-.763V5h5v1.422z"/></svg>
